public/images/logos/make.svg

<svg fill="none" height="64" viewBox="0 0 64 64" width="64" xmlns="http://www.w3.org/2000/svg" xmlns:xlink="http://www.w3.org/1999/xlink"><clipPath id="a"><path d="m0 0h64v64h-64z"/></clipPath><mask id="b" height="32" maskUnits="userSpaceOnUse" width="45" x="10" y="16"><path d="m53.674 47.3139h-7.7905c-.5949 0-1.0752-.4835-1.0752-1.0752v-28.7635c0-.5949.4835-1.0752 1.0752-1.0752h7.7905c.5948 0 1.0752.4803 1.0752 1.0752v28.7635c0 .5917-.4804 1.0752-1.0752 1.0752zm-34.6771-.3722 12.9152-25.7001c.2672-.5312.0541-1.177-.4772-1.4442l-6.9602-3.4992c-.5312-.2672-1.177-.0541-1.4442.4772l-12.9153 25.7c-.26716.5313-.054 1.177.4772 1.4443l6.9602 3.4992c.5313.264 1.1771.0509 1.4443-.4772zm19.1152-.1018 5.5255-28.0127c.1145-.5822-.2608-1.1452-.843-1.2629l-7.6378-1.5428c-.5821-.1177-1.1515.2608-1.2692.8429v.0032l-5.5256 28.0127c-.1145.5822.2609 1.1452.843 1.2629l7.6378 1.5429c.5821.1177 1.1516-.2609 1.2693-.843 0 0 0 0 0-.0032z" fill="#fff"/></mask><mask id="c" height="38" maskUnits="userSpaceOnUse" width="51" x="7" y="13"><path d="m57.4657 13.2827h-50.19129v37.1457h50.19129z" fill="#fff"/></mask><mask id="d" height="38" maskUnits="userSpaceOnUse" width="51" x="7" y="13"><path d="m57.4657 13.2827h-50.19129v37.1457h50.19129z" fill="#fff"/></mask><g clip-path="url(#a)"><path d="m64 0h-64v64h64z" fill="#6010be"/><path d="m53.674 47.3139h-7.7905c-.5949 0-1.0752-.4835-1.0752-1.0752v-28.7635c0-.5949.4835-1.0752 1.0752-1.0752h7.7905c.5948 0 1.0752.4803 1.0752 1.0752v28.7635c0 .5917-.4804 1.0752-1.0752 1.0752zm-34.6771-.3722 12.9152-25.7001c.2672-.5312.0541-1.177-.4772-1.4442l-6.9602-3.4992c-.5312-.2672-1.177-.0541-1.4442.4772l-12.9153 25.7c-.26716.5313-.054 1.177.4772 1.4443l6.9602 3.4992c.5313.264 1.1771.0509 1.4443-.4772zm19.1152-.1018 5.5255-28.0127c.1145-.5822-.2608-1.1452-.843-1.2629l-7.6378-1.5428c-.5821-.1177-1.1515.2608-1.2692.8429v.0032l-5.5256 28.0127c-.1145.5822.2609 1.1452.843 1.2629l7.6378 1.5429c.5821.1177 1.1516-.2609 1.2693-.843 0 0 0 0 0-.0032z" fill="#fff"/><g mask="url(#b)"><path d="m57.4657 13.2827h-50.19129v37.1457h50.19129z" fill="#fff"/><g mask="url(#c)"><path d="m57.4657 13.2827h-50.19129v37.1457h50.19129z" fill="#fff"/><g mask="url(#d)"><path d="m57.4842 13.0278h-50.36311v37.5783h50.36311z" fill="#fff"/></g></g></g></g></svg>

<svg width="64" height="64" viewBox="0 0 64 64" fill="none" xmlns="http://www.w3.org/2000/svg">
<g clip-path="url(#clip0_555_6509)">
<path d="M64 0H0V64H64V0Z" fill="#6010BE"/>
<path d="M53.674 47.3139H45.8835C45.2886 47.3139 44.8083 46.8304 44.8083 46.2387V17.4752C44.8083 16.8803 45.2918 16.4 45.8835 16.4H53.674C54.2688 16.4 54.7492 16.8803 54.7492 17.4752V46.2387C54.7492 46.8304 54.2688 47.3139 53.674 47.3139ZM18.9969 46.9417L31.9121 21.2416C32.1793 20.7104 31.9662 20.0646 31.4349 19.7974L24.4747 16.2982C23.9435 16.031 23.2977 16.2441 23.0305 16.7754L10.1152 42.4754C9.84804 43.0067 10.0612 43.6524 10.5924 43.9197L17.5526 47.4189C18.0839 47.6829 18.7297 47.4698 18.9969 46.9417ZM38.1121 46.8399L43.6376 18.8272C43.7521 18.245 43.3768 17.682 42.7946 17.5643L35.1568 16.0215C34.5747 15.9038 34.0053 16.2823 33.8876 16.8644V16.8676L28.362 44.8803C28.2475 45.4625 28.6229 46.0255 29.205 46.1432L36.8428 47.6861C37.4249 47.8038 37.9944 47.4252 38.1121 46.8431C38.1121 46.8431 38.1121 46.8431 38.1121 46.8399Z" fill="white"/>
<mask id="mask0_555_6509" style="mask-type:luminance" maskUnits="userSpaceOnUse" x="10" y="16" width="45" height="32">
<path d="M53.674 47.3139H45.8835C45.2886 47.3139 44.8083 46.8304 44.8083 46.2387V17.4752C44.8083 16.8803 45.2918 16.4 45.8835 16.4H53.674C54.2688 16.4 54.7492 16.8803 54.7492 17.4752V46.2387C54.7492 46.8304 54.2688 47.3139 53.674 47.3139ZM18.9969 46.9417L31.9121 21.2416C32.1793 20.7104 31.9662 20.0646 31.4349 19.7974L24.4747 16.2982C23.9435 16.031 23.2977 16.2441 23.0305 16.7754L10.1152 42.4754C9.84804 43.0067 10.0612 43.6524 10.5924 43.9197L17.5526 47.4189C18.0839 47.6829 18.7297 47.4698 18.9969 46.9417ZM38.1121 46.8399L43.6376 18.8272C43.7521 18.245 43.3768 17.682 42.7946 17.5643L35.1568 16.0215C34.5747 15.9038 34.0053 16.2823 33.8876 16.8644V16.8676L28.362 44.8803C28.2475 45.4625 28.6229 46.0255 29.205 46.1432L36.8428 47.6861C37.4249 47.8038 37.9944 47.4252 38.1121 46.8431C38.1121 46.8431 38.1121 46.8431 38.1121 46.8399Z" fill="white"/>
</mask>
<g mask="url(#mask0_555_6509)">
<path d="M57.4657 13.2827H7.27441V50.4284H57.4657V13.2827Z" fill="white"/>
<mask id="mask1_555_6509" style="mask-type:luminance" maskUnits="userSpaceOnUse" x="7" y="13" width="51" height="38">
<path d="M57.4657 13.2827H7.27441V50.4284H57.4657V13.2827Z" fill="white"/>
</mask>
<g mask="url(#mask1_555_6509)">
<path d="M57.4657 13.2827H7.27441V50.4284H57.4657V13.2827Z" fill="white"/>
<mask id="mask2_555_6509" style="mask-type:luminance" maskUnits="userSpaceOnUse" x="7" y="13" width="51" height="38">
<path d="M57.4657 13.2827H7.27441V50.4284H57.4657V13.2827Z" fill="white"/>
</mask>
<g mask="url(#mask2_555_6509)">
<path d="M57.4842 13.0278H7.12109V50.6061H57.4842V13.0278Z" fill="white"/>
</g>
</g>
</g>
</g>
<defs>
<clipPath id="clip0_555_6509">
<rect width="64" height="64" fill="white"/>
</clipPath>
</defs>
</svg>
